X:1
T:James Moir (Banker, Portsoy)
T:James Moir (Banker, Portsoy)
T:Alexander Walker
C:Alexander Walker
L:1/8
M:4/4
K:G
V:1 treble 
V:1
 B | d>BG>B d<gd>B | d>BG>B A>Bc>e | d>BG>B G>Bd>B | c>AB>G (A2 G>)B | d>BG>B d<gd>B | %6
 d>BG>B E<AF>D | B,>G,D>G, E>A,F>A, | (G/F/E/D/) E>F (G2 G) || f | g>ag>d e<gd>B | g>ag>B e<AA>f | %12
 g>ag>d e<gd>B | E>AF>D (G2 G>)f | g>ag>d e<gd>B | g>ag>G E>AF>D | B,<G,D>G, E>A,F>A, | %17
 (G/F/E/D/) E>F (G2 G) || %18

